packages/tokens/icons/click/size24Px.svg

<svg viewBox="0 0 24 24" fill="none" xmlns="http://www.w3.org/2000/svg" width="1em" height="1em"><path d="M13.3334 21.091L8.17922 8.43989C8.11241 8.27592 8.27592 8.11241 8.43989 8.17922L21.091 13.3334C21.2503 13.3983 21.2588 13.6206 21.105 13.6975L17.7482 15.3759C17.6261 15.437 17.5997 15.5997 17.6962 15.6962L20.3586 18.3586C20.4367 18.4367 20.4367 18.5633 20.3586 18.6414L18.6414 20.3586C18.5633 20.4367 18.4367 20.4367 18.3586 20.3586L15.6962 17.6962C15.5997 17.5997 15.437 17.6261 15.3759 17.7482L13.6975 21.105C13.6206 21.2588 13.3983 21.2503 13.3334 21.091Z" stroke="currentColor"/><path d="M5.5 13.5L4 15" stroke="currentColor" stroke-linecap="round"/><path d="M9.5 2.5V4.5" stroke="currentColor" stroke-linecap="round"/><path d="M4 4L5.5 5.5" stroke="currentColor" stroke-linecap="round"/><path d="M2.5 9.5H4.5" stroke="currentColor" stroke-linecap="round"/><path d="M13.5 5.5L15 4" stroke="currentColor" stroke-linecap="round"/></svg>

<svg xmlns="http://www.w3.org/2000/svg" fill="none" viewBox="0 0 24 24" width="1em" height="1em"><path stroke="currentColor" d="M13.333 21.091 8.18 8.44a.2.2 0 0 1 .26-.26l12.652 5.153a.2.2 0 0 1 .014.364l-3.357 1.679a.2.2 0 0 0-.052.32l2.663 2.663a.2.2 0 0 1 0 .282l-1.72 1.719a.2.2 0 0 1-.282 0l-2.663-2.663a.2.2 0 0 0-.32.052l-1.678 3.357a.2.2 0 0 1-.365-.014Z"/><path stroke="currentColor" stroke-linecap="round" d="M5.5 13.5 4 15M9.5 2.5v2M4 4l1.5 1.5m-3 4h2m9-4L15 4"/></svg>
